actions/symbolic/bookmark-new-symbolic.svg

<?xml version="1.0" encoding="UTF-8" standalone="no"?>
<svg
   xmlns:dc="http://purl.org/dc/elements/1.1/"
   xmlns:cc="http://creativecommons.org/ns#"
   xmlns:rdf="http://www.w3.org/1999/02/22-rdf-syntax-ns#"
   xmlns:svg="http://www.w3.org/2000/svg"
   xmlns="http://www.w3.org/2000/svg"
   xmlns:sodipodi="http://sodipodi.sourceforge.net/DTD/sodipodi-0.dtd"
   xmlns:inkscape="http://www.inkscape.org/namespaces/inkscape"
   viewBox="0 0 16 16"
   id="svg3487"
   version="1.1"
   inkscape:version="0.91 r13725"
   sodipodi:docname="bookmark-new-symbolic.svg">
  <metadata
     id="metadata3495">
    <rdf:RDF>
      <cc:Work
         rdf:about="">
        <dc:format>image/svg+xml</dc:format>
        <dc:type
           rdf:resource="http://purl.org/dc/dcmitype/StillImage" />
      </cc:Work>
    </rdf:RDF>
  </metadata>
  <sodipodi:namedview
     pagecolor="#ffffff"
     bordercolor="#666666"
     borderopacity="1"
     objecttolerance="10"
     gridtolerance="10"
     guidetolerance="10"
     inkscape:pageopacity="0"
     inkscape:pageshadow="2"
     inkscape:window-width="640"
     inkscape:window-height="480"
     id="namedview3493"
     showgrid="false"
     inkscape:zoom="39.8125"
     inkscape:cx="4.0816327"
     inkscape:cy="9.0047096"
     inkscape:current-layer="svg3487" />
  <defs
     id="defs3051">
    <style
       type="text/css"
       id="current-color-scheme">
      .ColorScheme-Text {
        color:#bebebe;
      }
      </style>
  </defs>
  <path
     style="color:#bebebe;fill:currentColor;fill-opacity:1;stroke:none"
     class="ColorScheme-Text"
     d="M 14,6.6502175 C 14,6.46367 13.865458,6.3477575 13.59602,6.3023675 L 9.97598,5.750435 8.3534,2.3099825 C 8.26214,2.1032975 8.14424,2 8.000045,2 7.8558575,2 7.73804,2.1032975 7.64669,2.3099825 L 6.02402,5.750435 2.4038075,6.3023675 C 2.1346325,6.3477425 2,6.46367 2,6.6502175 c 0,0.1059 0.060075,0.22692 0.1803075,0.3629775 l 2.62503,2.67672 -0.620145,3.78069 c -0.00968,0.07064 -0.014476,0.121117 -0.014476,0.151282 0,0.1059 0.025276,0.195271 0.075682,0.268493 0.0504,0.07313 0.126135,0.10962 0.22713,0.10962 0.086573,0 0.1827,-0.03007 0.2884726,-0.09068 l 3.237915,-1.784625 3.2381699,1.784625 C 11.339173,13.969841 11.435307,14 11.52647,14 c 0.0964,0 0.169597,-0.03638 0.220057,-0.10962 0.05033,-0.07313 0.07559,-0.1626 0.07559,-0.268493 0,-0.06555 -0.0022,-0.115912 -0.0075,-0.151282 l -0.620206,-3.78069 2.617762,-2.67672 c 0.12516,-0.13104 0.18756,-0.252075 0.18756,-0.3629775 l 0,0 z"
     id="path3491"
     inkscape:connector-curvature="0" />
</svg>

<svg xmlns="http://www.w3.org/2000/svg" viewBox="0 0 16 16">
  <path fill="#bebebe" d="M14 6.65c0-.186-.135-.302-.404-.348l-3.62-.552-1.623-3.44C8.263 2.103 8.144 2 8 2s-.262.103-.353.31L6.024 5.75l-3.62.552c-.27.046-.404.162-.404.348 0 .106.06.227.18.363L4.805 9.69l-.62 3.78c-.01.071-.014.122-.014.152 0 .106.025.195.075.268.05.074.127.11.228.11a.59.59 0 0 0 .288-.09L8 12.124l3.238 1.784c.101.06.197.091.288.091a.25.25 0 0 0 .22-.11.462.462 0 0 0 .076-.268c0-.066-.002-.116-.007-.151l-.62-3.781 2.617-2.677c.125-.13.188-.252.188-.363z"/>
</svg>
